images/Chk1N74.svg

<?xml version="1.0" encoding="UTF-8"?>
<svg xmlns="http://www.w3.org/2000/svg" xmlns:xlink="http://www.w3.org/1999/xlink" width="300pt" height="300pt" viewBox="0 0 300 300" version="1.1">
<defs>
<g>
<symbol overflow="visible" id="glyph0-0">
<path style="stroke:none;" d="M 0.453125 1.59375 L 0.453125 -6.34375 L 4.953125 -6.34375 L 4.953125 1.59375 Z M 0.953125 1.09375 L 4.453125 1.09375 L 4.453125 -5.84375 L 0.953125 -5.84375 Z M 0.953125 1.09375 "/>
</symbol>
<symbol overflow="visible" id="glyph0-1">
<path style="stroke:none;" d="M 0.890625 -6.5625 L 1.765625 -6.5625 L 1.765625 -3.875 L 5 -3.875 L 5 -6.5625 L 5.890625 -6.5625 L 5.890625 0 L 5 0 L 5 -3.125 L 1.765625 -3.125 L 1.765625 0 L 0.890625 0 Z M 0.890625 -6.5625 "/>
</symbol>
<symbol overflow="visible" id="glyph0-2">
<path style="stroke:none;" d="M 3.546875 -5.953125 C 2.898438 -5.953125 2.382812 -5.710938 2 -5.234375 C 1.625 -4.753906 1.4375 -4.101562 1.4375 -3.28125 C 1.4375 -2.445312 1.625 -1.789062 2 -1.3125 C 2.382812 -0.832031 2.898438 -0.59375 3.546875 -0.59375 C 4.191406 -0.59375 4.703125 -0.832031 5.078125 -1.3125 C 5.453125 -1.789062 5.640625 -2.445312 5.640625 -3.28125 C 5.640625 -4.101562 5.453125 -4.753906 5.078125 -5.234375 C 4.703125 -5.710938 4.191406 -5.953125 3.546875 -5.953125 Z M 3.546875 -6.6875 C 4.460938 -6.6875 5.195312 -6.375 5.75 -5.75 C 6.300781 -5.132812 6.578125 -4.3125 6.578125 -3.28125 C 6.578125 -2.238281 6.300781 -1.410156 5.75 -0.796875 C 5.195312 -0.179688 4.460938 0.125 3.546875 0.125 C 2.617188 0.125 1.878906 -0.179688 1.328125 -0.796875 C 0.773438 -1.410156 0.5 -2.238281 0.5 -3.28125 C 0.5 -4.3125 0.773438 -5.132812 1.328125 -5.75 C 1.878906 -6.375 2.617188 -6.6875 3.546875 -6.6875 Z M 3.546875 -6.6875 "/>
</symbol>
<symbol overflow="visible" id="glyph0-3">
<path style="stroke:none;" d="M 0.890625 -6.5625 L 2.078125 -6.5625 L 4.984375 -1.078125 L 4.984375 -6.5625 L 5.84375 -6.5625 L 5.84375 0 L 4.65625 0 L 1.75 -5.484375 L 1.75 0 L 0.890625 0 Z M 0.890625 -6.5625 "/>
</symbol>
</g>
</defs>
<g id="surface393">
<rect x="0" y="0" width="300" height="300" style="fill:rgb(100%,100%,100%);fill-opacity:1;stroke:none;"/>
<path style="fill:none;stroke-width:1.2;stroke-linecap:butt;stroke-linejoin:miter;stroke:rgb(100%,0%,0%);stroke-opacity:1;stroke-miterlimit:10;" d="M 38.679688 105.785156 L 45.539062 110.734375 "/>
<path style="fill:none;stroke-width:1.2;stroke-linecap:butt;stroke-linejoin:miter;stroke:rgb(0%,0%,100%);stroke-opacity:1;stroke-miterlimit:10;" d="M 45.539062 110.734375 L 52.398438 115.683594 "/>
<path style=" stroke:none;fill-rule:nonzero;fill:rgb(100%,100%,100%);fill-opacity:1;" d="M 23.679688 100.285156 L 38.679688 100.285156 L 38.679688 111.285156 L 23.679688 111.285156 Z M 23.679688 100.285156 "/>
<g style="fill:rgb(100%,0%,0%);fill-opacity:1;">
  <use xlink:href="#glyph0-1" x="23.679688" y="108.948242"/>
  <use xlink:href="#glyph0-2" x="30.694336" y="108.948242"/>
</g>
<path style="fill:none;stroke-width:1.2;stroke-linecap:butt;stroke-linejoin:miter;stroke:rgb(0%,0%,100%);stroke-opacity:1;stroke-miterlimit:10;" d="M 52.398438 115.683594 L 51.542969 124.101562 "/>
<path style="fill:none;stroke-width:1.2;stroke-linecap:butt;stroke-linejoin:miter;stroke:rgb(0%,0%,0%);stroke-opacity:1;stroke-miterlimit:10;" d="M 51.542969 124.101562 L 50.683594 132.515625 "/>
<path style=" stroke:none;fill-rule:nonzero;fill:rgb(100%,100%,100%);fill-opacity:1;" d="M 45.398438 110.183594 L 59.398438 110.183594 L 59.398438 121.183594 L 45.398438 121.183594 Z M 45.398438 110.183594 "/>
<g style="fill:rgb(0%,0%,100%);fill-opacity:1;">
  <use xlink:href="#glyph0-3" x="45.398438" y="118.84668"/>
  <use xlink:href="#glyph0-1" x="52.375977" y="118.84668"/>
</g>
<path style="fill:none;stroke-width:1.2;stroke-linecap:butt;stroke-linejoin:miter;stroke:rgb(0%,0%,0%);stroke-opacity:1;stroke-miterlimit:10;" d="M 50.683594 132.515625 L 64.402344 142.417969 "/>
<path style="fill:none;stroke-width:1.2;stroke-linecap:butt;stroke-linejoin:miter;stroke:rgb(0%,0%,0%);stroke-opacity:1;stroke-miterlimit:10;" d="M 49.867188 130.699219 L 42.152344 134.167969 "/>
<path style="fill:none;stroke-width:1.2;stroke-linecap:butt;stroke-linejoin:miter;stroke:rgb(100%,0%,0%);stroke-opacity:1;stroke-miterlimit:10;" d="M 42.152344 134.167969 L 34.433594 137.632812 "/>
<path style="fill:none;stroke-width:1.2;stroke-linecap:butt;stroke-linejoin:miter;stroke:rgb(0%,0%,0%);stroke-opacity:1;stroke-miterlimit:10;" d="M 51.5 134.332031 L 43.78125 137.796875 "/>
<path style="fill:none;stroke-width:1.2;stroke-linecap:butt;stroke-linejoin:miter;stroke:rgb(100%,0%,0%);stroke-opacity:1;stroke-miterlimit:10;" d="M 43.78125 137.796875 L 36.066406 141.261719 "/>
<path style="fill:none;stroke-width:1.2;stroke-linecap:butt;stroke-linejoin:miter;stroke:rgb(0%,0%,0%);stroke-opacity:1;stroke-miterlimit:10;" d="M 64.402344 142.417969 L 79.835938 135.488281 "/>
<path style="fill:none;stroke-width:1.2;stroke-linecap:butt;stroke-linejoin:miter;stroke:rgb(0%,0%,0%);stroke-opacity:1;stroke-miterlimit:10;" d="M 67.578125 145.355469 L 79.925781 139.8125 "/>
<path style="fill:none;stroke-width:1.2;stroke-linecap:butt;stroke-linejoin:miter;stroke:rgb(0%,0%,0%);stroke-opacity:1;stroke-miterlimit:10;" d="M 62.6875 159.25 L 64.402344 142.417969 "/>
<path style="fill:none;stroke-width:1.2;stroke-linecap:butt;stroke-linejoin:miter;stroke:rgb(0%,0%,0%);stroke-opacity:1;stroke-miterlimit:10;" d="M 79.835938 135.488281 L 93.554688 145.386719 "/>
<path style="fill:none;stroke-width:1.2;stroke-linecap:butt;stroke-linejoin:miter;stroke:rgb(0%,0%,0%);stroke-opacity:1;stroke-miterlimit:10;" d="M 93.554688 145.386719 L 91.839844 162.21875 "/>
<path style="fill:none;stroke-width:1.2;stroke-linecap:butt;stroke-linejoin:miter;stroke:rgb(0%,0%,0%);stroke-opacity:1;stroke-miterlimit:10;" d="M 89.425781 146.667969 L 88.050781 160.132812 "/>
<path style="fill:none;stroke-width:1.2;stroke-linecap:butt;stroke-linejoin:miter;stroke:rgb(0%,0%,0%);stroke-opacity:1;stroke-miterlimit:10;" d="M 91.839844 162.21875 L 105.558594 172.121094 "/>
<path style="fill:none;stroke-width:1.2;stroke-linecap:butt;stroke-linejoin:miter;stroke:rgb(0%,0%,0%);stroke-opacity:1;stroke-miterlimit:10;" d="M 91.839844 162.21875 L 76.40625 169.148438 "/>
<path style="fill:none;stroke-width:1.2;stroke-linecap:butt;stroke-linejoin:miter;stroke:rgb(0%,0%,0%);stroke-opacity:1;stroke-miterlimit:10;" d="M 105.558594 172.121094 L 121.632812 166.839844 "/>
<path style="fill:none;stroke-width:1.2;stroke-linecap:butt;stroke-linejoin:miter;stroke:rgb(0%,0%,0%);stroke-opacity:1;stroke-miterlimit:10;" d="M 108.410156 175.375 L 121.269531 171.152344 "/>
<path style="fill:none;stroke-width:1.2;stroke-linecap:butt;stroke-linejoin:miter;stroke:rgb(0%,0%,100%);stroke-opacity:1;stroke-miterlimit:10;" d="M 105.613281 189.039062 L 105.585938 180.578125 "/>
<path style="fill:none;stroke-width:1.2;stroke-linecap:butt;stroke-linejoin:miter;stroke:rgb(0%,0%,0%);stroke-opacity:1;stroke-miterlimit:10;" d="M 105.585938 180.578125 L 105.558594 172.121094 "/>
<path style="fill:none;stroke-width:1.2;stroke-linecap:butt;stroke-linejoin:miter;stroke:rgb(0%,0%,0%);stroke-opacity:1;stroke-miterlimit:10;" d="M 121.632812 166.839844 L 131.535156 153.121094 "/>
<path style="fill:none;stroke-width:1.2;stroke-linecap:butt;stroke-linejoin:miter;stroke:rgb(0%,0%,0%);stroke-opacity:1;stroke-miterlimit:10;" d="M 121.632812 166.839844 L 131.621094 180.496094 "/>
<path style="fill:none;stroke-width:1.2;stroke-linecap:butt;stroke-linejoin:miter;stroke:rgb(0%,0%,0%);stroke-opacity:1;stroke-miterlimit:10;" d="M 131.535156 153.121094 L 147.640625 158.296875 "/>
<path style="fill:none;stroke-width:1.2;stroke-linecap:butt;stroke-linejoin:miter;stroke:rgb(0%,0%,0%);stroke-opacity:1;stroke-miterlimit:10;" d="M 147.640625 158.296875 L 147.695312 175.21875 "/>
<path style="fill:none;stroke-width:1.2;stroke-linecap:butt;stroke-linejoin:miter;stroke:rgb(0%,0%,0%);stroke-opacity:1;stroke-miterlimit:10;" d="M 151.628906 159.976562 L 151.671875 173.511719 "/>
<path style="fill:none;stroke-width:1.2;stroke-linecap:butt;stroke-linejoin:miter;stroke:rgb(0%,0%,0%);stroke-opacity:1;stroke-miterlimit:10;" d="M 162.265625 149.792969 L 147.640625 158.296875 "/>
<path style="fill:none;stroke-width:1.2;stroke-linecap:butt;stroke-linejoin:miter;stroke:rgb(0%,0%,0%);stroke-opacity:1;stroke-miterlimit:10;" d="M 147.695312 175.21875 L 162.375 183.628906 "/>
<path style="fill:none;stroke-width:1.2;stroke-linecap:butt;stroke-linejoin:miter;stroke:rgb(0%,0%,0%);stroke-opacity:1;stroke-miterlimit:10;" d="M 131.621094 180.496094 L 147.695312 175.21875 "/>
<path style="fill:none;stroke-width:1.2;stroke-linecap:butt;stroke-linejoin:miter;stroke:rgb(0%,0%,0%);stroke-opacity:1;stroke-miterlimit:10;" d="M 162.375 183.628906 L 177 175.125 "/>
<path style="fill:none;stroke-width:1.2;stroke-linecap:butt;stroke-linejoin:miter;stroke:rgb(0%,0%,0%);stroke-opacity:1;stroke-miterlimit:10;" d="M 161.835938 179.339844 L 173.535156 172.535156 "/>
<path style="fill:none;stroke-width:1.2;stroke-linecap:butt;stroke-linejoin:miter;stroke:rgb(0%,0%,0%);stroke-opacity:1;stroke-miterlimit:10;" d="M 177 175.125 L 176.945312 158.207031 "/>
<path style="fill:none;stroke-width:1.2;stroke-linecap:butt;stroke-linejoin:miter;stroke:rgb(0%,0%,0%);stroke-opacity:1;stroke-miterlimit:10;" d="M 176.945312 158.207031 L 191.570312 149.699219 "/>
<path style="fill:none;stroke-width:1.2;stroke-linecap:butt;stroke-linejoin:miter;stroke:rgb(0%,0%,0%);stroke-opacity:1;stroke-miterlimit:10;" d="M 176.945312 158.207031 L 162.265625 149.792969 "/>
<path style="fill:none;stroke-width:1.2;stroke-linecap:butt;stroke-linejoin:miter;stroke:rgb(0%,0%,0%);stroke-opacity:1;stroke-miterlimit:10;" d="M 173.5 160.816406 L 161.753906 154.085938 "/>
<path style="fill:none;stroke-width:1.2;stroke-linecap:butt;stroke-linejoin:miter;stroke:rgb(0%,0%,0%);stroke-opacity:1;stroke-miterlimit:10;" d="M 191.570312 149.699219 L 198.910156 153.90625 "/>
<path style="fill:none;stroke-width:1.2;stroke-linecap:butt;stroke-linejoin:miter;stroke:rgb(0%,0%,100%);stroke-opacity:1;stroke-miterlimit:10;" d="M 198.910156 153.90625 L 206.25 158.113281 "/>
<path style="fill:none;stroke-width:1.2;stroke-linecap:butt;stroke-linejoin:miter;stroke:rgb(0%,0%,100%);stroke-opacity:1;stroke-miterlimit:10;" d="M 206.25 158.113281 L 213.5625 153.859375 "/>
<path style="fill:none;stroke-width:1.2;stroke-linecap:butt;stroke-linejoin:miter;stroke:rgb(0%,0%,0%);stroke-opacity:1;stroke-miterlimit:10;" d="M 213.5625 153.859375 L 220.875 149.605469 "/>
<path style=" stroke:none;fill-rule:nonzero;fill:rgb(100%,100%,100%);fill-opacity:1;" d="M 199.25 152.613281 L 213.25 152.613281 L 213.25 163.613281 L 199.25 163.613281 Z M 199.25 152.613281 "/>
<g style="fill:rgb(0%,0%,100%);fill-opacity:1;">
  <use xlink:href="#glyph0-3" x="199.25" y="161.276367"/>
  <use xlink:href="#glyph0-1" x="206.227539" y="161.276367"/>
</g>
<path style="fill:none;stroke-width:1.2;stroke-linecap:butt;stroke-linejoin:miter;stroke:rgb(0%,0%,0%);stroke-opacity:1;stroke-miterlimit:10;" d="M 220.875 149.605469 L 235.554688 158.019531 "/>
<path style="fill:none;stroke-width:1.2;stroke-linecap:butt;stroke-linejoin:miter;stroke:rgb(0%,0%,0%);stroke-opacity:1;stroke-miterlimit:10;" d="M 220.820312 132.6875 L 220.875 149.605469 "/>
<path style="fill:none;stroke-width:1.2;stroke-linecap:butt;stroke-linejoin:miter;stroke:rgb(0%,0%,0%);stroke-opacity:1;stroke-miterlimit:10;" d="M 235.554688 158.019531 L 250.179688 149.511719 "/>
<path style="fill:none;stroke-width:1.2;stroke-linecap:butt;stroke-linejoin:miter;stroke:rgb(0%,0%,0%);stroke-opacity:1;stroke-miterlimit:10;" d="M 250.179688 149.511719 L 250.125 132.59375 "/>
<path style="fill:none;stroke-width:1.2;stroke-linecap:butt;stroke-linejoin:miter;stroke:rgb(0%,0%,0%);stroke-opacity:1;stroke-miterlimit:10;" d="M 250.125 132.59375 L 235.445312 124.179688 "/>
<path style="fill:none;stroke-width:1.2;stroke-linecap:butt;stroke-linejoin:miter;stroke:rgb(0%,0%,0%);stroke-opacity:1;stroke-miterlimit:10;" d="M 250.125 132.59375 L 257.4375 128.339844 "/>
<path style="fill:none;stroke-width:1.2;stroke-linecap:butt;stroke-linejoin:miter;stroke:rgb(100%,0%,0%);stroke-opacity:1;stroke-miterlimit:10;" d="M 257.4375 128.339844 L 264.75 124.089844 "/>
<path style="fill:none;stroke-width:1.2;stroke-linecap:butt;stroke-linejoin:miter;stroke:rgb(0%,0%,0%);stroke-opacity:1;stroke-miterlimit:10;" d="M 235.445312 124.179688 L 220.820312 132.6875 "/>
<path style=" stroke:none;fill-rule:nonzero;fill:rgb(100%,100%,100%);fill-opacity:1;" d="M 257.75 118.589844 L 272.75 118.589844 L 272.75 129.589844 L 257.75 129.589844 Z M 257.75 118.589844 "/>
<g style="fill:rgb(100%,0%,0%);fill-opacity:1;">
  <use xlink:href="#glyph0-2" x="257.75" y="127.25293"/>
  <use xlink:href="#glyph0-1" x="265.091797" y="127.25293"/>
</g>
<path style="fill:none;stroke-width:1.2;stroke-linecap:butt;stroke-linejoin:miter;stroke:rgb(0%,0%,0%);stroke-opacity:1;stroke-miterlimit:10;" d="M 131.621094 180.496094 L 126.671875 187.355469 "/>
<path style="fill:none;stroke-width:1.2;stroke-linecap:butt;stroke-linejoin:miter;stroke:rgb(0%,0%,100%);stroke-opacity:1;stroke-miterlimit:10;" d="M 126.671875 187.355469 L 121.722656 194.214844 "/>
<path style="fill:none;stroke-width:1.2;stroke-linecap:butt;stroke-linejoin:miter;stroke:rgb(0%,0%,0%);stroke-opacity:1;stroke-miterlimit:10;" d="M 127.402344 179.539062 L 123.445312 185.027344 "/>
<path style="fill:none;stroke-width:1.2;stroke-linecap:butt;stroke-linejoin:miter;stroke:rgb(0%,0%,100%);stroke-opacity:1;stroke-miterlimit:10;" d="M 123.445312 185.027344 L 119.484375 190.515625 "/>
<path style="fill:none;stroke-width:1.2;stroke-linecap:butt;stroke-linejoin:miter;stroke:rgb(0%,0%,100%);stroke-opacity:1;stroke-miterlimit:10;" d="M 121.722656 194.214844 L 105.613281 189.039062 "/>
<path style=" stroke:none;fill-rule:nonzero;fill:rgb(100%,100%,100%);fill-opacity:1;" d="M 118.722656 188.714844 L 125.722656 188.714844 L 125.722656 199.714844 L 118.722656 199.714844 Z M 118.722656 188.714844 "/>
<g style="fill:rgb(0%,0%,100%);fill-opacity:1;">
  <use xlink:href="#glyph0-3" x="118.722656" y="197.37793"/>
</g>
<path style=" stroke:none;fill-rule:nonzero;fill:rgb(100%,100%,100%);fill-opacity:1;" d="M 98.613281 183.539062 L 112.613281 183.539062 L 112.613281 194.539062 L 98.613281 194.539062 Z M 98.613281 183.539062 "/>
<g style="fill:rgb(0%,0%,100%);fill-opacity:1;">
  <use xlink:href="#glyph0-3" x="98.613281" y="192.202148"/>
  <use xlink:href="#glyph0-1" x="105.59082" y="192.202148"/>
</g>
<path style="fill:none;stroke-width:1.2;stroke-linecap:butt;stroke-linejoin:miter;stroke:rgb(0%,0%,0%);stroke-opacity:1;stroke-miterlimit:10;" d="M 76.40625 169.148438 L 62.6875 159.25 "/>
<path style="fill:none;stroke-width:1.2;stroke-linecap:butt;stroke-linejoin:miter;stroke:rgb(0%,0%,0%);stroke-opacity:1;stroke-miterlimit:10;" d="M 77.363281 164.933594 L 66.390625 157.011719 "/>
<path style=" stroke:none;fill-rule:nonzero;fill:rgb(100%,100%,100%);fill-opacity:1;" d="M 27.25 133.949219 L 35.25 133.949219 L 35.25 144.949219 L 27.25 144.949219 Z M 27.25 133.949219 "/>
<g style="fill:rgb(100%,0%,0%);fill-opacity:1;">
  <use xlink:href="#glyph0-2" x="27.25" y="142.612305"/>
</g>
</g>
</svg>

<svg xmlns="http://www.w3.org/2000/svg" xmlns:xlink="http://www.w3.org/1999/xlink" width="300pt" height="300pt" viewBox="0 0 300 300"><defs><symbol overflow="visible"><path d="M.453 1.594v-7.938h4.5v7.938zm.5-.5h3.5v-6.938h-3.5zm0 0"/></symbol><symbol overflow="visible" id="a"><path d="M.89-6.563h.876v2.688H5v-2.688h.89V0H5v-3.125H1.766V0H.89zm0 0"/></symbol><symbol overflow="visible" id="b"><path d="M3.547-5.953c-.65 0-1.164.242-1.547.72-.375.48-.563 1.13-.563 1.952 0 .835.188 1.49.563 1.967.383.48.898.72 1.547.72.644 0 1.156-.24 1.53-.72.376-.476.564-1.132.564-1.968 0-.822-.187-1.474-.562-1.954-.375-.477-.887-.72-1.53-.72zm0-.734c.914 0 1.648.312 2.203.937.55.617.828 1.438.828 2.47 0 1.042-.277 1.87-.828 2.483-.555.617-1.29.922-2.203.922-.93 0-1.668-.305-2.22-.922C.774-1.41.5-2.237.5-3.28c0-1.033.273-1.853.828-2.47.55-.625 1.29-.938 2.22-.938zm0 0"/></symbol><symbol overflow="visible" id="c"><path d="M.89-6.563H2.08l2.906 5.485v-5.484h.86V0H4.656L1.75-5.484V0H.89zm0 0"/></symbol></defs><g><path fill="#fff" d="M0 0h300v300H0z"/><path d="M38.68 105.785l6.86 4.95" stroke-width="1.2" stroke="#f00" stroke-miterlimit="10" fill="none"/><path d="M45.54 110.734l6.858 4.95" stroke-width="1.2" stroke="#00f" stroke-miterlimit="10" fill="none"/><path d="M23.68 100.285h15v11h-15zm0 0" fill="#fff"/><g fill="#f00"><use xlink:href="#a" x="23.68" y="108.948"/><use xlink:href="#b" x="30.694" y="108.948"/></g><path d="M52.398 115.684l-.855 8.418" stroke-width="1.2" stroke="#00f" stroke-miterlimit="10" fill="none"/><path d="M51.543 124.102l-.86 8.414" stroke-width="1.2" stroke="#000" stroke-miterlimit="10" fill="none"/><path d="M45.398 110.184h14v11h-14zm0 0" fill="#fff"/><g fill="#00f"><use xlink:href="#c" x="45.398" y="118.847"/><use xlink:href="#a" x="52.376" y="118.847"/></g><path d="M50.684 132.516l13.718 9.902M49.867 130.7l-7.715 3.468" stroke-width="1.2" stroke="#000" stroke-miterlimit="10" fill="none"/><path d="M42.152 134.168l-7.718 3.465" stroke-width="1.2" stroke="#f00" stroke-miterlimit="10" fill="none"/><path d="M51.5 134.332l-7.72 3.465" stroke-width="1.2" stroke="#000" stroke-miterlimit="10" fill="none"/><path d="M43.78 137.797l-7.714 3.465" stroke-width="1.2" stroke="#f00" stroke-miterlimit="10" fill="none"/><path d="M64.402 142.418l15.434-6.93M67.578 145.355l12.348-5.542M62.688 159.25l1.714-16.832M79.836 135.488l13.72 9.9M93.555 145.387L91.84 162.22M89.426 146.668l-1.375 13.465M91.84 162.22l13.72 9.9M91.84 162.22l-15.434 6.928M105.56 172.12l16.073-5.28M108.41 175.375l12.86-4.223" stroke-width="1.2" stroke="#000" stroke-miterlimit="10" fill="none"/><path d="M105.613 189.04l-.027-8.462" stroke-width="1.2" stroke="#00f" stroke-miterlimit="10" fill="none"/><path d="M105.586 180.578l-.027-8.457M121.633 166.84l9.902-13.72M121.633 166.84l9.988 13.656M131.535 153.12l16.106 5.177M147.64 158.297l.055 16.922M151.63 159.977l.042 13.535M162.266 149.793l-14.625 8.504M147.695 175.22l14.68 8.41M131.62 180.496l16.075-5.277M162.375 183.63L177 175.124M161.836 179.34l11.7-6.805M177 175.125l-.055-16.918M176.945 158.207l14.625-8.508M176.945 158.207l-14.68-8.414M173.5 160.816l-11.746-6.73M191.57 149.7l7.34 4.206" stroke-width="1.2" stroke="#000" stroke-miterlimit="10" fill="none"/><path d="M198.91 153.906l7.34 4.207M206.25 158.113l7.313-4.254" stroke-width="1.2" stroke="#00f" stroke-miterlimit="10" fill="none"/><path d="M213.563 153.86l7.312-4.255" stroke-width="1.2" stroke="#000" stroke-miterlimit="10" fill="none"/><path d="M199.25 152.613h14v11h-14zm0 0" fill="#fff"/><g fill="#00f"><use xlink:href="#c" x="199.25" y="161.276"/><use xlink:href="#a" x="206.228" y="161.276"/></g><path d="M220.875 149.605l14.68 8.415M220.82 132.688l.055 16.917M235.555 158.02l14.625-8.508M250.18 149.512l-.055-16.918M250.125 132.594l-14.68-8.414M250.125 132.594l7.313-4.254" stroke-width="1.2" stroke="#000" stroke-miterlimit="10" fill="none"/><path d="M257.438 128.34l7.312-4.25" stroke-width="1.2" stroke="#f00" stroke-miterlimit="10" fill="none"/><path d="M235.445 124.18l-14.625 8.507" stroke-width="1.2" stroke="#000" stroke-miterlimit="10" fill="none"/><path d="M257.75 118.59h15v11h-15zm0 0" fill="#fff"/><g fill="#f00"><use xlink:href="#b" x="257.75" y="127.253"/><use xlink:href="#a" x="265.092" y="127.253"/></g><path d="M131.62 180.496l-4.948 6.86" stroke-width="1.2" stroke="#000" stroke-miterlimit="10" fill="none"/><path d="M126.672 187.355l-4.95 6.86" stroke-width="1.2" stroke="#00f" stroke-miterlimit="10" fill="none"/><path d="M127.402 179.54l-3.957 5.487" stroke-width="1.2" stroke="#000" stroke-miterlimit="10" fill="none"/><path d="M123.445 185.027l-3.96 5.49M121.723 194.215l-16.11-5.176" stroke-width="1.2" stroke="#00f" stroke-miterlimit="10" fill="none"/><path d="M118.723 188.715h7v11h-7zm0 0" fill="#fff"/><use xlink:href="#c" x="118.723" y="197.378" fill="#00f"/><path d="M98.613 183.54h14v11h-14zm0 0" fill="#fff"/><g fill="#00f"><use xlink:href="#c" x="98.613" y="192.202"/><use xlink:href="#a" x="105.591" y="192.202"/></g><path d="M76.406 169.148l-13.72-9.898M77.363 164.934l-10.972-7.922" stroke-width="1.2" stroke="#000" stroke-miterlimit="10" fill="none"/><path d="M27.25 133.95h8v11h-8zm0 0" fill="#fff"/><use xlink:href="#b" x="27.25" y="142.612" fill="#f00"/></g></svg>
